X: 658
T: Da xiuqian
L: 1/8
M: 2/4
K: A
c e c B [I:setbarnb 1]| 
c e c B | 
c e c B | 
cA3 | 
z c c c | 
B cA2 | 
BA2F | 
E4 | 
A FA2 | 
C EC2 | 
A FA2 | 
C EC2 | 
B> A B B | 
z c B c | 
B2A2 | 
B B C E | 
G FE2 |]

@@@ Tune index: 9532
